teeny/solid/id.svg

<svg width="15" height="15" viewBox="0 0 15 15" fill="none" xmlns="http://www.w3.org/2000/svg">
<path fill-rule="evenodd" clip-rule="evenodd" d="M0 3.5C0 2.67157 0.671573 2 1.5 2H13.5C14.3284 2 15 2.67157 15 3.5V11.5C15 12.3284 14.3284 13 13.5 13H1.5C0.671574 13 0 12.3284 0 11.5V3.5ZM3 6C3 4.89543 3.89543 4 5 4C6.10457 4 7 4.89543 7 6C7 7.10457 6.10457 8 5 8C3.89543 8 3 7.10457 3 6ZM12 6H9V5H12V6ZM12 9H9V8H12V9ZM5 9C3.89132 9 2.87779 9.6264 2.38197 10.618L2.05279 11.2764C1.97529 11.4314 1.98357 11.6155 2.07468 11.7629C2.16578 11.9103 2.32671 12 2.5 12H7.5C7.67329 12 7.83422 11.9103 7.92533 11.7629C8.01643 11.6155 8.02471 11.4314 7.94721 11.2764L7.61803 10.618C7.12222 9.6264 6.10869 9 5 9Z" fill="black"/>
</svg>

<svg viewBox="0 0 15 15" xmlns="http://www.w3.org/2000/svg"><path fill-rule="evenodd" d="M0 3.5C0 2.67.67 2 1.5 2h12c.82 0 1.5.67 1.5 1.5v8c0 .82-.68 1.5-1.5 1.5h-12C.67 13 0 12.32 0 11.5v-8ZM3 6c0-1.11.89-2 2-2 1.1 0 2 .89 2 2 0 1.1-.9 2-2 2 -1.11 0-2-.9-2-2Zm9 0H9V5h3v1Zm0 3H9V8h3v1ZM5 9c-1.11 0-2.13.62-2.62 1.61l-.33.65c-.08.15-.07.33.02.48 .09.14.25.23.42.23h5c.17 0 .33-.09.42-.24 .09-.15.09-.34.02-.49l-.33-.66c-.5-1-1.51-1.62-2.62-1.62Z"/></svg>
